lincoln/2020/assets/images/sponsors/notist.svg

<svg xmlns="http://www.w3.org/2000/svg" width="319" height="58" fill="none" viewBox="0 0 319 58"><path fill="currentColor" d="M.69 56.19V2h14.09L40.8 35.13V2h14.02v54.19H40.8L14.78 23.06v33.13H.69zM70.36 29.1c0-4.02.74-7.77 2.23-11.25 1.48-3.47 3.55-6.5 6.18-9.09s5.79-4.61 9.45-6.07C91.88 1.23 95.92.5 100.33.5c4.36 0 8.38.73 12.08 2.19 3.69 1.46 6.86 3.49 9.52 6.07 2.66 2.59 4.73 5.62 6.22 9.09 1.48 3.47 2.23 7.22 2.23 11.25s-.74 7.78-2.23 11.25c-1.49 3.47-3.56 6.5-6.22 9.09-2.66 2.59-5.83 4.61-9.52 6.07-3.69 1.46-7.72 2.19-12.08 2.19-4.41 0-8.44-.73-12.11-2.19s-6.82-3.49-9.45-6.07c-2.64-2.59-4.7-5.62-6.18-9.09-1.49-3.48-2.23-7.23-2.23-11.25zm14.73 0c0 2.16.41 4.15 1.22 5.97.81 1.82 1.92 3.4 3.31 4.74 1.39 1.34 3.01 2.38 4.85 3.13 1.84.74 3.8 1.11 5.86 1.11 2.06 0 4.01-.37 5.86-1.11 1.84-.74 3.47-1.78 4.89-3.13 1.41-1.34 2.53-2.92 3.34-4.74.81-1.82 1.22-3.81 1.22-5.97 0-2.16-.41-4.14-1.22-5.97-.82-1.82-1.93-3.4-3.34-4.74a15.443 15.443 0 00-4.89-3.13c-1.85-.74-3.8-1.11-5.86-1.11-2.06 0-4.01.37-5.86 1.11-1.85.74-3.46 1.79-4.85 3.13-1.39 1.34-2.49 2.92-3.31 4.74-.81 1.82-1.22 3.81-1.22 5.97zM166.33 13.93v42.26h-14.09V13.93h-11.57V2h37.23v11.93h-11.57zM210.3 2v54.19h-14.09V2h14.09zM259.48 15.87c-1.53-1.25-3.07-2.17-4.6-2.77-1.53-.6-3.02-.9-4.46-.9-1.82 0-3.31.43-4.46 1.29-1.15.86-1.73 1.99-1.73 3.38 0 .96.29 1.75.86 2.37.58.62 1.33 1.16 2.26 1.62.93.46 1.99.85 3.16 1.19 1.17.34 2.34.7 3.49 1.08 4.6 1.53 7.97 3.58 10.1 6.15 2.13 2.56 3.2 5.91 3.2 10.03 0 2.78-.47 5.29-1.4 7.55a15.74 15.74 0 01-4.1 5.79c-1.8 1.61-4 2.85-6.61 3.74-2.61.89-5.57 1.33-8.88 1.33-6.85 0-13.2-2.04-19.05-6.11l6.04-11.36c2.11 1.87 4.19 3.26 6.25 4.17 2.06.91 4.1 1.37 6.11 1.37 2.3 0 4.01-.53 5.14-1.58 1.12-1.05 1.69-2.25 1.69-3.59 0-.81-.14-1.52-.43-2.12-.29-.6-.77-1.15-1.44-1.65-.67-.5-1.55-.97-2.62-1.4-1.08-.43-2.38-.91-3.92-1.44-1.82-.58-3.61-1.21-5.35-1.9-1.75-.69-3.31-1.62-4.67-2.77-1.36-1.15-2.47-2.6-3.31-4.35-.84-1.75-1.26-3.96-1.26-6.65 0-2.68.44-5.11 1.33-7.29.89-2.18 2.13-4.05 3.74-5.61 1.61-1.56 3.57-2.77 5.89-3.63 2.32-.86 4.92-1.29 7.8-1.29 2.68 0 5.49.37 8.41 1.11 2.92.74 5.73 1.83 8.41 3.27l-5.59 10.97zM307.06 13.93v42.26h-14.09V13.93H281.4V2h37.23v11.93h-11.57z"/></svg>

<svg width="319" height="58" viewBox="0 0 319 58" fill="none" xmlns="http://www.w3.org/2000/svg">
<path d="M0.690002 56.19V2H14.78L40.8 35.13V2H54.82V56.19H40.8L14.78 23.06V56.19H0.690002Z" fill="currentColor"/>
<path d="M70.36 29.1C70.36 25.08 71.1 21.33 72.59 17.85C74.07 14.38 76.14 11.35 78.77 8.76C81.4 6.17 84.56 4.15 88.22 2.69C91.88 1.23 95.92 0.5 100.33 0.5C104.69 0.5 108.71 1.23 112.41 2.69C116.1 4.15 119.27 6.18 121.93 8.76C124.59 11.35 126.66 14.38 128.15 17.85C129.63 21.32 130.38 25.07 130.38 29.1C130.38 33.13 129.64 36.88 128.15 40.35C126.66 43.82 124.59 46.85 121.93 49.44C119.27 52.03 116.1 54.05 112.41 55.51C108.72 56.97 104.69 57.7 100.33 57.7C95.92 57.7 91.89 56.97 88.22 55.51C84.55 54.05 81.4 52.02 78.77 49.44C76.13 46.85 74.07 43.82 72.59 40.35C71.1 36.87 70.36 33.12 70.36 29.1ZM85.09 29.1C85.09 31.26 85.5 33.25 86.31 35.07C87.12 36.89 88.23 38.47 89.62 39.81C91.01 41.15 92.63 42.19 94.47 42.94C96.31 43.68 98.27 44.05 100.33 44.05C102.39 44.05 104.34 43.68 106.19 42.94C108.03 42.2 109.66 41.16 111.08 39.81C112.49 38.47 113.61 36.89 114.42 35.07C115.23 33.25 115.64 31.26 115.64 29.1C115.64 26.94 115.23 24.96 114.42 23.13C113.6 21.31 112.49 19.73 111.08 18.39C109.67 17.05 108.04 16.01 106.19 15.26C104.34 14.52 102.39 14.15 100.33 14.15C98.27 14.15 96.32 14.52 94.47 15.26C92.62 16 91.01 17.05 89.62 18.39C88.23 19.73 87.13 21.31 86.31 23.13C85.5 24.95 85.09 26.94 85.09 29.1Z" fill="currentColor"/>
<path d="M166.33 13.93V56.19H152.24V13.93H140.67V2H177.9V13.93H166.33Z" fill="currentColor"/>
<path d="M210.3 2V56.19H196.21V2H210.3Z" fill="currentColor"/>
<path d="M259.48 15.87C257.95 14.62 256.41 13.7 254.88 13.1C253.35 12.5 251.86 12.2 250.42 12.2C248.6 12.2 247.11 12.63 245.96 13.49C244.81 14.35 244.23 15.48 244.23 16.87C244.23 17.83 244.52 18.62 245.09 19.24C245.67 19.86 246.42 20.4 247.35 20.86C248.28 21.32 249.34 21.71 250.51 22.05C251.68 22.39 252.85 22.75 254 23.13C258.6 24.66 261.97 26.71 264.1 29.28C266.23 31.84 267.3 35.19 267.3 39.31C267.3 42.09 266.83 44.6 265.9 46.86C264.97 49.11 263.6 51.04 261.8 52.65C260 54.26 257.8 55.5 255.19 56.39C252.58 57.28 249.62 57.72 246.31 57.72C239.46 57.72 233.11 55.68 227.26 51.61L233.3 40.25C235.41 42.12 237.49 43.51 239.55 44.42C241.61 45.33 243.65 45.79 245.66 45.79C247.96 45.79 249.67 45.26 250.8 44.21C251.92 43.16 252.49 41.96 252.49 40.62C252.49 39.81 252.35 39.1 252.06 38.5C251.77 37.9 251.29 37.35 250.62 36.85C249.95 36.35 249.07 35.88 248 35.45C246.92 35.02 245.62 34.54 244.08 34.01C242.26 33.43 240.47 32.8 238.73 32.11C236.98 31.42 235.42 30.49 234.06 29.34C232.7 28.19 231.59 26.74 230.75 24.99C229.91 23.24 229.49 21.03 229.49 18.34C229.49 15.66 229.93 13.23 230.82 11.05C231.71 8.87002 232.95 7.00002 234.56 5.44002C236.17 3.88002 238.13 2.67002 240.45 1.81002C242.77 0.950019 245.37 0.52002 248.25 0.52002C250.93 0.52002 253.74 0.890019 256.66 1.63002C259.58 2.37002 262.39 3.46002 265.07 4.90002L259.48 15.87Z" fill="currentColor"/>
<path d="M307.06 13.93V56.19H292.97V13.93H281.4V2H318.63V13.93H307.06Z" fill="currentColor"/>
</svg>
